X: 21530
T: Kilcar, The
R: mazurka
M: 3/4
K: Gmajor
g|:b>g d2B2|G>B e2g2|f>d (3cdc A2|G>B e2g2|
b>g d2[c2E2]|A>c e2g2|f>e [D2d2]f2|1 a2g2 g>a:|2 a2g2 g>d||
B>d g2g>e|f>g a2g2|f>g e3f|ge[G,2G2d2][D2B2]|
d2g2g>e|f>g a2g2|1 a2g2 g>d:|2 a2 Hg2 g>a "_DS"||

